X:1
T:In aeternum, Domine
T:Antoine de Fevin
T:Source : Bicinia---Tomus II---Wittemberg---G.Rhau---1545. Editor : André Vierendeels (23/06/17).
T:Notes : Original clefs : C3, F3 Original note values have been halved Editorial accidentals above the staff Dotted brackets indicate black notes Square bracket indicates ligature 
T:In aeternum, Domine
T:©
T:©
C:Antoine de Fevin
Z:©
%%score [ 1 2 ]
L:1/8
Q:1/4=120
M:2/2
K:F
V:1 treble-8 nm="Tenor" snm="T"
V:2 bass nm="Bass" snm="B"
V:1
 z2 d4 f2- | f2 e4 d2- | d2 cB A4 | G2 B2 c2 d2- | d2 e4 f2 | g2 a3 g fe | d3 c B2 A2 | %7
w: In ae-|* ter- *||num, Do- mi- ne,|_ ver- bum|tu- um _ _ _|per- * ma- net|
"^#" G2 g4 f2 | g4 z2 g2 | g2 e2 d4 | z2 g2 f2 e2- | e2 d4 c2 | d4 z2 d2- | d2 c2 B2 AG | %14
w: in cae- *|lo, in|ge- ne- ra-|ti- * o-||nem, et|_ ge- ne ra- *|
 A4 G2 c2 | c2 B2 c4 | z2 e2 f2 g2- | g2 f4 e2 | f4 z2 d2 | e2 e2 f4 | f2 g4 e2 | f2 d4 cB | %22
w: * * ti-|o- * nem|ve- ri- tas|_ tu- *|a, fun-|da- sti ter-|* ram et|per- * * *|
 A4 G4 | z2 A2 B2 c2 | d3 c B2 A2 | G2 B2 c2 d2- | defg agfe | d2 g4 f2 | g8 |] %29
w: ma- net,|et per- *||||* ma- *|net|
V:2
 G,4 B,4 | A,4 G,4- | G,4 F,4 | G,4 E,2 D,2 | F,2 G,2 A,4 | B,2 C2 D4 | B,2 G,4 F,2 | G,2 B,2 A,4 | %8
w: In ae-|ter- num,|_ Do-|mi- ne, in|ae- ter- num,|ver- bum tu-|um per- ma-|net in cae-|
 G,8- | G,4 z2 G,2 | G,2 E,2 D,2 G,2- | G,2 F,2 E,4 | D,8 | z4 z2 G,2 | G,2 F,2 E,2 D,C, | %15
w: lo,|_ in|ge- ne- ra- ti-|* o- *|nem,|et|ge- ne- ra- * *|
 D,4 C,2 F,2- | F,2 G,2 A,2 B,2 | F,4 G,4 | F,8 | z2 G,2 A,2 A,2 | B,4 C4 | A,2 B,4 A,G, | %22
w: ti- * o-|||nem,|ve- ri- tas|tu- *||
 F,4 z2 G,2 |"^#" E,2 F,2 G,2 E,2 | D,2 G,4 F,2 | G,4 z4 | B,6 C2 | D2 B,2 A,4 | G,8 |] %29
w: a, fun-|da- sti ter- *||ram,|et per-|* * ma-|net|

